X:1
T:Title
%%score { 1 | 2 }
L:1/8
M:3/4
K:C
V:1 treble nm="Grand Piano"
V:2 bass 
V:1
 z2 z2[Q:1/4=100] [CE][DF] | [EG]2 [EG]2 AB | [Ec]2 [EG]2 [EG][FA] | G3 F F[B,G] | [CE]4 [CE][DF] | %5
 [EG]3 [EG] AB | [Ec]2 [EG]2 [Ec][Ec] | B3 G ^FA | [B,G]4 GG | G2 d2 BA | [EG]2 [Ec]2 [Ec][Ec] | %11
 c3 A c[Ad] | [^Ge]4 [=Ge][Fd] | [Ec]3 [Ec] [Fc][GB] | [GB]2 A2 AA | G3 A [EG][DF] | E4 GG | %17
 [Ge]3 [Ge] [Gd][Gc] |[M:15/16] cA/- A3- AA/-A/A |[M:3/4] AG e3 d |[M:2/4] [Ec]4 |] %21
V:2
 z2 z2 [C,G,][C,G,] | [C,C]2 [C,C]2 [F,CF][G,F] | [C,G,]2 [C,C]2 [C,C][C,C] | %3
 [G,E]3 [G,D] [G,D][G,,G,] | [C,G,]4 [C,G,][C,G,] | [C,C]3 [C,C][K:treble] [F,CF][G,F] | %6
 [C,G,]2 [C,C]2 [C,G,][C,G,] | [D,G,D]3 [D,B,D] [D,A,C][D,^F,C] | [G,,G,]4 [G,B,][G,B,] | %9
 [G,B,F]2 [G,B,F]2 [G,DF][G,B,F] | [C,C]2 [C,G,]2 [C,G,][C,G,] | [A,CE]3 [A,CE] [A,CE][F,A,] | %12
 [E,B,]4 [G,B,][G,B,] | [C,C]3 [C,C] [D,C][E,C] | [F,C]2[K:treble] [F,CF]2 [F,CF][F,CF] | %15
 [G,CE]3 [G,F][K:bass] [G,,G,][G,,G,] | [C,G,C]4 G,G, | [C,C]3 [C,C] [D,B,][E,C] | %18
[M:15/16] [F,A,F][F,CF]/- [F,CF]3- [F,CF][^F,C_E]/-[F,CE]/[F,CE] | %19
[M:3/4][K:treble] [G,CE][G,CE] [G,B,G]3 [G,B,F] |[M:2/4][K:bass] [C,C]4 |] %21

